packages/core/src/svgs/brise.svg

<svg width="24" height="24" viewBox="0 0 24 24" fill="none" xmlns="http://www.w3.org/2000/svg">
<g clip-path="url(#clip0_31_7353)">
<path d="M0 0H24V24H0V0Z" fill="#F0F3FA"/>
<path d="M7.78721 7.11422C7.76534 7.10159 7.74712 7.0835 7.73435 7.06171C7.72158 7.03992 7.71469 7.01518 7.71436 6.98993V5.74707C7.71436 5.35948 7.86833 4.98776 8.1424 4.71369C8.41647 4.43962 8.78819 4.28564 9.17578 4.28564H9.34721C9.6815 4.28564 10.0115 4.37564 10.2986 4.54707L16.9758 8.51993C17.156 8.62691 17.3055 8.77858 17.4098 8.96028C17.5142 9.14198 17.5699 9.34754 17.5715 9.55707V9.85707C17.5715 10.4699 17.2458 11.0356 16.7144 11.3442L7.9715 16.4142C7.94564 16.4292 7.91633 16.4371 7.88646 16.4372C7.8566 16.4373 7.82723 16.4296 7.80125 16.4149C7.77526 16.4002 7.75358 16.3789 7.73834 16.3533C7.7231 16.3276 7.71483 16.2984 7.71436 16.2685V7.93707C7.71458 7.89957 7.72465 7.86278 7.74355 7.83038C7.76245 7.79799 7.78952 7.77112 7.82205 7.75246C7.85459 7.73381 7.89146 7.72402 7.92896 7.72408C7.96647 7.72413 8.0033 7.73403 8.03578 7.75279L12.4029 10.2514C12.4555 10.2813 12.4992 10.3247 12.5296 10.377C12.56 10.4293 12.576 10.4887 12.576 10.5492C12.576 10.6097 12.56 10.6691 12.5296 10.7215C12.4992 10.7738 12.4555 10.8171 12.4029 10.8471L10.9458 11.6871C10.8937 11.7172 10.8345 11.733 10.7744 11.733C10.7142 11.733 10.655 11.7172 10.6029 11.6871L9.98578 11.3271C9.97254 11.3194 9.95748 11.3154 9.94218 11.3156C9.92688 11.3157 9.9119 11.3199 9.89878 11.3278C9.88566 11.3356 9.87488 11.3469 9.86757 11.3603C9.86027 11.3738 9.85669 11.3889 9.85721 11.4042V12.6814C9.85721 12.7499 9.93007 12.7885 9.98578 12.7585L14.8801 9.92993C14.8935 9.92252 14.9046 9.91165 14.9124 9.89846C14.9202 9.88527 14.9243 9.87024 14.9243 9.85493C14.9243 9.83962 14.9202 9.82459 14.9124 9.8114C14.9046 9.79821 14.8935 9.78734 14.8801 9.77993L9.98578 6.95136C9.97254 6.9437 9.95748 6.93973 9.94218 6.93985C9.92688 6.93997 9.9119 6.94419 9.89878 6.95206C9.88566 6.95993 9.87488 6.97117 9.86757 6.98462C9.86027 6.99806 9.85669 7.01321 9.85721 7.0285V7.70136C9.85776 7.7618 9.84231 7.82132 9.81244 7.87387C9.78257 7.92642 9.73934 7.97014 9.68712 8.0006C9.63491 8.03105 9.57557 8.04717 9.51513 8.0473C9.45468 8.04743 9.39527 8.03158 9.34293 8.00136L7.78721 7.11422Z" fill="url(#paint0_linear_31_7353)"/>
<path d="M7.73565 17.0398C7.72822 17.044 7.72221 17.0503 7.71839 17.0579C7.71457 17.0655 7.71312 17.0742 7.71423 17.0826V18.2526C7.71423 18.4445 7.75203 18.6346 7.82547 18.8119C7.89891 18.9892 8.00656 19.1503 8.14227 19.286C8.27798 19.4217 8.43908 19.5294 8.61639 19.6028C8.7937 19.6762 8.98374 19.714 9.17565 19.714H9.35137C9.68565 19.714 10.0114 19.6283 10.3028 19.4569L16.7228 15.7112C16.9815 15.5598 17.1961 15.3432 17.345 15.083C17.4939 14.8228 17.5719 14.5281 17.5714 14.2283C17.5705 13.9358 17.4908 13.6489 17.3408 13.3977C17.1907 13.1466 16.9757 12.9405 16.7185 12.8012L16.1914 12.4926C16.1177 12.4501 16.0342 12.4277 15.9492 12.4277C15.8642 12.4277 15.7807 12.4501 15.7071 12.4926L14.0357 13.4569C14.0126 13.4705 13.9934 13.49 13.9801 13.5133C13.9668 13.5366 13.9598 13.5629 13.9598 13.5898C13.9598 13.6166 13.9668 13.643 13.9801 13.6662C13.9934 13.6895 14.0126 13.709 14.0357 13.7226L14.9099 14.2283C14.9223 14.236 14.9326 14.2467 14.9397 14.2595C14.9468 14.2722 14.9505 14.2866 14.9505 14.3012C14.9505 14.3158 14.9468 14.3301 14.9397 14.3429C14.9326 14.3556 14.9223 14.3664 14.9099 14.374L9.98565 17.1683C9.97272 17.1758 9.95807 17.1798 9.94314 17.1798C9.92821 17.1799 9.91352 17.176 9.90053 17.1687C9.88754 17.1613 9.8767 17.1507 9.86908 17.1379C9.86146 17.125 9.85732 17.1104 9.85708 17.0955V16.3369C9.85662 16.2845 9.84242 16.2331 9.8159 16.1878C9.78938 16.1426 9.75147 16.1051 9.70594 16.0791C9.66041 16.0531 9.60886 16.0394 9.55642 16.0396C9.50398 16.0397 9.45249 16.0535 9.40708 16.0798L7.73565 17.0398Z" fill="url(#paint1_linear_31_7353)"/>
</g>
<defs>
<linearGradient id="paint0_linear_31_7353" x1="17.5715" y1="10.2856" x2="7.71436" y2="10.2856" gradientUnits="userSpaceOnUse">
<stop stop-color="#3710DC"/>
<stop offset="1" stop-color="#8109EA"/>
</linearGradient>
<linearGradient id="paint1_linear_31_7353" x1="17.5714" y1="15.214" x2="7.71423" y2="15.214" gradientUnits="userSpaceOnUse">
<stop stop-color="#10DBB7"/>
<stop offset="1" stop-color="#7E0CE9"/>
</linearGradient>
<clipPath id="clip0_31_7353">
<rect width="24" height="24" fill="white"/>
</clipPath>
</defs>
</svg>

<svg xmlns="http://www.w3.org/2000/svg" width="24" height="24" fill="none" viewBox="0 0 24 24"><g clip-path="url(#a)"><path fill="#F0F3FA" d="M0 0h24v24H0z"/><path fill="url(#b)" d="M7.787 7.114a.15.15 0 0 1-.073-.124V5.747a1.46 1.46 0 0 1 1.462-1.461h.171c.335 0 .665.09.952.261l6.677 3.973a1.22 1.22 0 0 1 .596 1.037v.3c0 .613-.326 1.179-.858 1.487l-8.742 5.07a.17.17 0 0 1-.234-.06.2.2 0 0 1-.024-.085V7.936a.214.214 0 0 1 .322-.184l4.367 2.498a.342.342 0 0 1 0 .596l-1.457.84a.34.34 0 0 1-.343 0l-.617-.36a.09.09 0 0 0-.087 0 .09.09 0 0 0-.042.077v1.277c0 .069.073.108.129.078l4.894-2.83a.086.086 0 0 0 0-.15L9.986 6.952a.086.086 0 0 0-.129.078V7.7a.343.343 0 0 1-.514.3z"/><path fill="url(#c)" d="M7.736 17.04a.04.04 0 0 0-.022.043v1.17a1.46 1.46 0 0 0 1.462 1.461h.175c.335 0 .66-.086.952-.257l6.42-3.746a1.72 1.72 0 0 0 .848-1.483 1.63 1.63 0 0 0-.853-1.427l-.527-.308a.49.49 0 0 0-.484 0l-1.671.964a.154.154 0 0 0 0 .266l.874.505a.086.086 0 0 1 0 .146l-4.924 2.794a.09.09 0 0 1-.085 0 .09.09 0 0 1-.044-.072v-.76a.3.3 0 0 0-.45-.256z"/></g><defs><linearGradient id="b" x1="17.572" x2="7.714" y1="10.286" y2="10.286" gradientUnits="userSpaceOnUse"><stop stop-color="#3710DC"/><stop offset="1" stop-color="#8109EA"/></linearGradient><linearGradient id="c" x1="17.571" x2="7.714" y1="15.214" y2="15.214" gradientUnits="userSpaceOnUse"><stop stop-color="#10DBB7"/><stop offset="1" stop-color="#7E0CE9"/></linearGradient><clipPath id="a"><path fill="#fff" d="M0 0h24v24H0z"/></clipPath></defs></svg>
